!!!!SEGMENT: pl-cz--i-155--003-004_anonim--partita-es-poloneser.krn
!!!cenid: 18xx:2505
!!!COM: Anonim
!!!COM-rismid: pe30004985
!!!CDT:
!!!CNT:
!!!OPR: Partita Es
!!!OTL: Poloneser
!!!OMV: 004
!!!PDT:
!!!AGN: Secular; Partita
!!!SMS-siglum: PL-CZ
!!!SMS-shelfmark: I-155
!!!SMS-shelfwork: 003-004 M
!!!SMS-variant:
!!!SMS-altvar:
!!!NIFC-rismid: 1001012510
!!!URL-scan: http://repozytorium.nifc.pl/skany/pl-cz-nut--i-155
!!!ONB-nifc: UWAGA: Parthia 3 (003), części: 1. Adagio, 2. Allegro, 3. Menuetto, 4. Poloneser, 5. Finale. Uwaga: 5 partii
**kern	**kern	**kern	**kern	**kern
*part5	*part4	*part3	*part2	*part1
*staff5	*staff4	*staff3	*staff2	*staff1
*Icor	*Icor	*Ifagot	*Iclars	*Iclars
*I"Corno Secondo	*I"Corno Primo.	*I"Fagotto	*I"Clarinetto Secondo	*I"Clarinetto Primo
*I'cor 2 in E|b	*I'cor 1 in E|b	*I'fag	*I'cl 2	*I'cl 1
*>[A,A,B,B,C,C,D,D,A,A,B,B]	*>[A,A,B,B,C,C,D,D,A,A,B,B]	*>[A,A,B,B,C,C,D,D,A,A,B,B]	*>[A,A,B,B,C,C,D,D,A,A,B,B]	*>[A,A,B,B,C,C,D,D,A,A,B,B]
*>A	*>A	*>A	*>A	*>A
*clefG2	*clefG2	*clefF4	*clefG2	*clefG2
*ITrd5c9	*ITrd5c9	*	*ITrd1c2	*ITrd1c2
*k[b-e-a-]	*k[b-e-a-]	*k[b-e-a-]	*k[b-e-a-]	*k[b-e-a-]
*E-:	*E-:	*E-:	*E-:	*E-:
*M3/4	*M3/4	*M3/4	*M3/4	*M3/4
=1	=1	=1	=1	=1
*all\right	*all\right	*all\right	*all\right	*all\right
!	!	!LO:TX:a:t=P:problem:koejność znaków BB- E- A-	!	!
!	!	!LO:TX:a:t=P:problem:omyłkowo wpisany klucz F3	!	!
4G/	4e-\	4E-\	4e-/	4ee-\
4E-/	4e-\	4G\	4g/	4gg\
4G/	4e-\	4B-\	4b-/	4bb-\
=2	=2	=2	=2	=2
!	!	!LO:TX:t=P:problem:mixed beam	!	!
4e-\	4g\	8e-\L	8gg\L	8bb-\L
.	.	8E-\	16aa-\L	16ccc\L
.	.	.	16gg\JJ	16bb-\JJ
4B-/	4f\	8B-\	16gg\LL	16bb-\LL
.	.	.	16ff\	16aa-\
.	.	8BB-/J	16ee-\	16gg\
.	.	.	16dd\JJ	16ff\JJ
4G/	4e-\	4E-\	4ee-\	4gg\
=3	=3	=3	=3	=3
!	!	!LO:TX:t=P:problem:mixed beam	!	!
4B-/	4f\	8B-\L	8ff\L	8aa-\L
.	.	8BB-\J	16ff\L	16aa-\L
.	.	.	16dd\JJ	16ff\JJ
8r	8r	4E-\	4ee-\	4gg\
8G/L	8e-\L	.	.	.
8G/	8e-\	4r	4r	4r
8G/J	8e-\J	.	.	.
!	!	!	!	!LO:LB:g=original
=4	=4	=4	=4	=4
!	!	!LO:TX:t=P:problem:mixed beam	!	!
4B-/	4f\	8B-\L	8a-/L	8ff\L
.	.	8BB-/J	16a-/L	16ff\L
.	.	.	16f/JJ	16dd\JJ
8r	8r	4E-\	4g/	4ee-\
8G/L	8e-\L	.	.	.
8G/	8e-\	4r	4r	4r
8G/J	8e-\J	.	.	.
!LO:LB:g=original	!	!	!	!
=5	=5	=5	=5	=5
*	*	*tremolo	*	*
*	*	*2\right	*	*
4G/	4e-\	8e-\L	16E-/LL	16ee-\LL
.	.	.	16B-/	16gg\
.	.	8B-\	16G/	16bb-\
.	.	.	16B-/JJ	16gg\JJ
*	*	*	*rep	*
4r	4r	8e-\	16E-/LL	16ccc\LL
.	.	.	16B-/	16bb-\
.	.	8B-\	16G/	16aa-\
.	.	.	16B-/JJ	16gg\JJ
*	*	*	*Xrep	*
*	*	*	*rep	*
4G/	4e-\	8e-\	16E-/LL	16ff\LL
.	.	.	16B-/	16ee-\
.	.	8B-\J	16G/	16dd\
.	.	.	16B-/JJ	16ee-\JJ
*	*	*	*Xrep	*
!	!	!LO:LB:g=original	!LO:LB:g=original	!
=6	=6	=6	=6	=6
4B-/	4f\	8f\L	16D/LL	16aa-\LL
.	.	.	16B-/	16gg\
.	.	8B-\	16F/	16aa-\
.	.	.	16B-/JJ	16gg\JJ
*	*	*	*rep	*
4r	4r	8f\	16D/LL	16aa-\LL
.	.	.	16B-/	16gg\
.	.	8B-\	16F/	16ff\
.	.	.	16B-/JJ	16ee-\JJ
*	*	*	*Xrep	*
*	*	*	*rep	*
4B-/	4f\	8f\	16D/LL	16dd\LL
.	.	.	16B-/	16cc\
.	.	8B-\J	16F/	16b-\
.	.	.	16B-/JJ	16a-\JJ
*	*	*Xtremolo	*Xrep	*
=7	=7	=7	=7	=7
!LO:TX:t=P:problem:mixed beam	!	!	!	!
8G/L	8e-\L	4e-\	8G/L	16g\LL
.	.	.	.	16b-\
8G/	8e-\	.	8g/	16ee-\
.	.	.	.	16g\JJ
!	!	!	!	!LO:LB:g=original
8e-\	8g\	8e-\L	8a-/	8cc\L
8e-\	8g\	8E-\	8a-/	8cc\
8G/	8e-\	8e-\	8g/	8b-\
8G/J	8e-\J	8E-\J	8g/J	8b-\J
!	!LO:LB:g=original	!	!	!
=8	=8	=8	=8	=8
16e-\LL	16cc\LL	4E-\	16a-/LL	16cc\LL
16g\	16b-\	.	16g/	16b-\
16f\	16a-\	.	16f/	16a-\
16e-\JJ	16g\JJ	.	16e-/JJ	16g\JJ
4e-\	4g\	8E-\L	4e-/	4g/
.	.	16G\L	.	.
.	.	16E-\JJ	.	.
!LO:TX:a:t=P:problem:trzy skreślone takty	!	!	!	!LO:TX:b:t=8
4B-/	4f\	4B-\	4d/	4f/
!LO:LB:g=original	!	!	!	!
=9:|!|:	=9:|!|:	=9:|!|:	=9:|!|:	=9:|!|:
*>B	*>B	*>B	*>B	*>B
4B-/	4f\	4BB-/	8dd\L	8ff\L
.	.	.	8dd\J	8ff\J
8r	8r	8r	4ff\	4aa-\
!	!	!LO:TX:t=P:problem:mixed beam	!	!
8B-/L	8f\L	8BB-/L	.	.
8B-/	8f\	8B-\	4r	4r
8B-/J	8f\J	8BB-/J	.	.
=10	=10	=10	=10	=10
4e-\	4g\	4E-\	8ee-\L	8gg\L
.	.	.	8ee-\J	8gg\J
8r	8r	8r	4gg\	4bb-\
!	!	!LO:TX:t=P:problem:mixed beam	!	!
8e-\L	8g\L	8EE-/L	.	.
8e-\	8g\	8E-\	4r	4r
8e-\J	8g\J	8EE-/J	.	.
=11	=11	=11	=11	=11
4g\	4g\	4A-\	4gg\	4bb-\
8r	8r	4F\	8aa-\L	8ccc\L
8g\L	8b-\L	.	8gg\	8bb-\
8f\	8a-\	4B-\	8ff\	8aa-\
8e-\J	8g\J	.	8ee-\J	8gg\J
!	!	!	!LO:LB:g=original	!LO:PB:g=original
=12	=12	=12	=12	=12
!	!	!LO:TX:t=P:problem:mixed beam	!	!
4e-\	4g\	8F\L	16ff\LL	16aa-\LL
.	.	.	16ee-\	16gg\
.	.	8FF/	16dd\	16ff\
.	.	.	16ee-\JJ	16gg\JJ
4e-\	4g\	8B-\	4ee-\	(4gg\
.	.	8F\J	.	.
!	!	!LO:LB:g=original	!	!
4B-/	4f\	4BB-/	4dd\	4ff\)
=13	=13	=13	=13	=13
4G/	4e-\	4E-\	4e-/	4ee-\
4E-/	4e-\	4G\	4g/	4gg\
4G/	4e-\	4B-\	4b-/	4bb-\
=14	=14	=14	=14	=14
!	!	!LO:TX:t=P:problem:mixed beam	!	!
4e-\	4e-\	8e-\L	8gg\L	8bb-\L
.	.	8E-\	16aa-\L	16ccc\L
.	.	.	16gg\JJ	16bb-\JJ
4B-/	4f\	8B-\	16gg\LL	16bb-\LL
.	.	.	16ff\	16aa-\
.	.	8BB-/J	16ee-\	16gg\
.	.	.	16dd\JJ	16ff\JJ
4G/	4e-\	4E-\	4ee-\	4gg\
!LO:LB:g=original	!LO:LB:g=original	!	!	!
=15	=15	=15	=15	=15
4E-/	4e-\	4E-\	8ee-\L	8gg\L
.	.	.	16ff\L	16aa-\L
.	.	.	16dd\JJ	16ff\JJ
4G/	4e-\	4G\	4gg\	4bb-\
4E-/	4e-\	4E-\	16ff\LL	16aa-\LL
.	.	.	16ee-\	16gg\
.	.	.	16b-\	16ff\
.	.	.	16g\JJ	16ee-\JJ
=16	=16	=16	=16	=16
4B-/	4f\	4A-\	8a-\L	16ff\LL
.	.	.	.	16gg\
.	.	.	16cc\L	16aa-\
.	.	.	16a-\JJ	16ff\JJ
4B-/	4f\	4B-\	4f/	4dd\
!	!	!LO:TX:b:t=fin	!	!LO:TX:b:t=8
4G/	4e-\	4E-;\	4g/	4ee-\
!	!	!	!LO:LB:g=original	!LO:LB:g=original
==17	==17	==17	==17	==17
!!!OMD: Trio
*>C	*>C	*>C	*>C	*>C
*M3/4	*M3/4	*M3/4	*M3/4	*M3/4
4G/	4e-\	4E-\	8e-/	8g\
.	.	.	4g/	4b-\
8r	8r	4G\	.	.
8G/L	8e-\L	.	4b-\	4ee-\
8G/	8e-\	4E-\	.	.
8G/J	8e-\J	.	8ee-\	8gg\
=18	=18	=18	=18	=18
4G/	4e-\	4A-\	8b-\L	8gg\L
.	.	.	8a-\	8ff\
4B-/	4f\	4F\	8cc\	8aa-\
.	.	.	8a-\	8ff\
4G/	4e-\	4B-\	8g\	8ee-\
.	.	.	8f\J	8dd\J
=19	=19	=19	=19	=19
4G/	4e-\	8E-\L	8e-/L	8ee-\L
.	.	16G\L	16g/L	16gg\L
.	.	16E-\JJ	16e-/JJ	16ee-\JJ
!	!	!LO:LB:g=original	!	!
!	!	!LO:TX:t=P:problem:mixed beam	!LO:TX:t=P:problem:mixed beam	!
8r	8r	8BB-/L	8B-/L	8b-\L
8B-/L	8b-\L	8B-\	8b-\	8bb-\
!	!	!LO:SIC:v:s=8G	!	!
8G/	8g\	8F\	8g\	8gg\
!	!	!LO:SIC:v:s=8E-	!	!
8E-/J	8e-\J	8D\J	8e-\J	8ee-\J
=20	=20	=20	=20	=20
8B-/L	8f\L	8BB-\L	8dd\L	8ff\L
8e-/	8g\	8E-\	8ee-\	8gg\
8B-/	8f\	8BB-\	8dd\	8ff\
8e-/J	8g\J	8E-\J	8ee-\J	8gg\J
4B-/	4f\	4BB-/	4dd\	4ff\
=21:|!|:	=21:|!|:	=21:|!|:	=21:|!|:	=21:|!|:
*>D	*>D	*>D	*>D	*>D
4B-/	4f\	4BB-/	8f/L	8b-\L
.	.	.	16b-/L	16dd\L
.	.	.	16f/JJ	16cc\JJ
!	!	!	!LO:LB:g=original	!LO:LB:g=original
8r	8r	4B-\	16d/LL	16b-\LL
.	.	.	16f/	16cc\
!LO:LB:g=original	!	!	!	!
8B-/L	8f\L	.	16b-/	16dd\
.	.	.	16dd/JJ	16ee-\JJ
8B-/	8f\	4BB-/	4ff\	4ff\
8B-/J	8f\J	.	.	.
!	!LO:LB:g=original	!	!	!
=22	=22	=22	=22	=22
4G/	4e-\	4EE-/	8g\L	8ee-\L
.	.	.	16ee-\L	16gg\L
.	.	.	16b-\JJ	16ff\JJ
8r	8r	4E-\	16g\LL	16ee-\LL
.	.	.	16b-\	16ff\
8G/L	8e-\L	.	16ee-\	16gg\
.	.	.	16ff\JJ	16aa-\JJ
8G/	8e-\	4EE-/	4gg\	4bb-\
8G/J	8e-\J	.	.	.
=23	=23	=23	=23	=23
4G/	4e-\	4E-\	8ff\L	8aa-\L
.	.	.	8ee-\	8gg\
8r	8r	4e-\	8aa-\	8ccc\
8e-\L	8g\L	.	8gg\	8bb-\
8B-\	8f\	4E-\	8ff\	8aa-\
8G\J	8e-\J	.	8ee-\J	8gg\J
=24	=24	=24	=24	=24
4G/	4e-\	4E-\	16ee-\LL	16gg\LL
.	.	.	16dd\	16ff\
.	.	.	16ee-\	16gg\
.	.	.	16ff\JJ	16aa-\JJ
!LO:TX:t=P:problem:mixed beam	!	!	!	!
8G/L	8e-\L	8E-\L	8gg\L	8bb-\L
8e-\J	8g\J	8G\J	8ee-\J	8gg\J
4B-/	4f\	4B-\	4dd\	4ff\
=25	=25	=25	=25	=25
4G/	4e-\	4E-\	8e-/	8g\
.	.	.	4g/	4b-\
8r	8r	4G\	.	.
8G/L	8e-\L	.	4b-/	4ee-\
8G/	8e-\	4E-\	.	.
8G/J	8e-\J	.	8ee-\	8gg\
!	!	!	!LO:LB:g=original	!LO:LB:g=original
=26	=26	=26	=26	=26
4G/	4e-\	4A-\	8b-\L	8gg\L
.	.	.	8a-\	8ff\
4B-/	4f\	4F\	8cc\	8aa-\
.	.	.	8a-\	8ff\
4G/	4e-\	4B-\	8g\	8ee-\
.	.	.	8f\J	8dd\J
=27	=27	=27	=27	=27
4E-/	4e-\	4E-\	8g\L	8ee-\L
.	.	.	16b-\L	16gg\L
.	.	.	16a-\JJ	16ee-\JJ
8r	8r	4G\	4g\	8b-\L
8E-/L	8e-\L	.	.	8ee-\
8E-/	8e-\	4E-\	8b-\L	8gg\
8E-/J	8e-\J	.	8g\J	8ee-\J
=28	=28	=28	=28	=28
4B-/	4f\	4A-\	16a-\LL	16ff\LL
.	.	.	16b-\	16gg\
.	.	.	16cc\	16aa-\
.	.	.	16a-\JJ	16ff\JJ
4B-/	4f\	4B-\	4f/	4dd\
!	!	!	!	!LO:TX:b:i:t=Polo&colon; Da Capo
!	!	!LO:TX:b:i:t=Poloneser Da Capo	!LO:TX:b:i:t=Polaca Da Capo	!LO:TX:b:t=8
4G/	4e-\	4E-\	4g/	4ee-\
==	==	==	==	==
*-	*-	*-	*-	*-
!!!system-decoration: [(s1,s2,s3)][(s4,s5)]
!!!AIN: 2 clars 2 cor 1 fagot
!!!ENC: Krzysztof Stępień
!!!END: 2021-06-16
!!!ENC: Marta Lawrence
!!!END: 2021-06-22
